app/dist/common/images/altyn-plc.svg

<svg height="18" viewBox="0 0 18 18" width="18" xmlns="http://www.w3.org/2000/svg"><path d="m0 0h18v18h-18z" fill="#f0f3fa"/><path d="m14 13h-10l.78-1.5h8.44z" fill="#ffb900"/><path d="m13 11h-5.23l-.92-1.75-.47.75h.31l.16-.4.46 1-.31.4h-2l1.85-2.96 1.23 1.96h.61l-1.54-2.63.47-.68 2 3.31h.61l-2.3-3.71.45-.94 2.77 4.65h.62l-3.08-5.2.31-.8z" fill="#507ec6"/></svg>

<!-- by TradingView --><svg width="18" height="18" viewBox="0 0 18 18" xmlns="http://www.w3.org/2000/svg"><path fill="#F0F3FA" d="M0 0h18v18H0z"/><path d="M14 13H4l.78-1.5h8.44L14 13Z" fill="#FFB900"/><path d="M13 11H7.77l-.92-1.75-.47.75h.31l.16-.4.46 1L7 11H5l1.85-2.96L8.08 10h.61L7.15 7.37l.47-.68 2 3.31h.61l-2.3-3.71.45-.94L11.15 10h.62L8.69 4.8 9 4l4 7Z" fill="#507EC6"/></svg>
